X:625
T: Kilfenora Jig "1"
M: 6/8
L: 1/8
R: Jig
K: D
A2D FED|A2D FED|A2D FED|dce dcB|
A2D FED|A2D FED|EDE =cAF|G3 GFG :|
F2d dcd|ABA BAG|F2d dcd|A3 A2G|
F2d dcd|ABA AFD|EDE =cAF|1 G3 GFG :|2 G3 d2e||
f2 d dcd|f2 d dcd|f2 d dcd|a^ga ba=g|f2 d dcd|
f2 d dcd|ged cde|g3 a2 :|
g|fed faf|gbg faf|fed faf|a3 bag|
fed faf|gbg faf|ged cde|g3 a2 :|
g|fed edc|dcd AFA|DFA dAF|A3 AB=c|
B3 =c3|B3 AFD|EDE =cAF|1 G3 a2 :|2 G3 GFG ||
